X: 1
T: Dun Telve
R: strathspey
B:
Z: 2005 John Chambers <jc:trillian.mit.edu>
M: C
L: 1/8
K: F
C \
|:"F"A>G F>C "Bb"D<F "F"C2 | A>G F>C "C7"E<G G2 \
| "F"A>G F>C "Bb"D<F "F"C2 | "Gm"B>A "C7"G>c "F"A<F F2 :|
| "F"c>B A>c "Bb"d>c B>d | "C7"e>d c<e "F"f2 C2 \
| "Bb"D>F B>D "F"D>F A>F | "G7"G>=B d<f "C7"e>c _B<G |
| "F"A>B c>A "Bb"B>c d2 | "C7"E>F G>C "F"F2 C2 \
| "Bb"D>B, D<F "F"C>A, C<F | "C7"E>F G>E "F"F2 z3 |]
